spyder/images/light/zoom_in.svg

<svg width="24" height="24" viewBox="0 0 24 24" fill="none" xmlns="http://www.w3.org/2000/svg">
<path fill-rule="evenodd" clip-rule="evenodd" d="M14.5 9C15.02 9 15.5232 9.07217 16 9.20703V8H10V2H8V8H2V10H8V16H9.20703C9.07217 15.5232 9 15.02 9 14.5C9 13.3226 9.36997 12.2316 10 11.3369V10H11.3369C12.2316 9.36997 13.3226 9 14.5 9ZM17.9748 12.1967C17.2085 11.4305 16.1693 11 15.0857 11C14.0021 11 12.9629 11.4305 12.1967 12.1967C11.4305 12.9629 11 14.0021 11 15.0857C11 16.1693 11.4305 17.2085 12.1967 17.9748C12.9629 18.741 14.0021 19.1714 15.0857 19.1714C16.0977 19.1714 17.028 18.8006 17.7446 18.1909L17.9143 18.3606V18.8571L21.0571 22L22 21.0571L18.8571 17.9143H18.3606L18.1909 17.7446C18.8006 17.028 19.1714 16.0977 19.1714 15.0857C19.1714 14.0021 18.741 12.9629 17.9748 12.1967ZM12.2571 15.0857C12.2571 13.5143 13.5143 12.2571 15.0857 12.2571C16.6571 12.2571 17.9143 13.5143 17.9143 15.0857C17.9143 16.6571 16.6571 17.9143 15.0857 17.9143C13.5143 17.9143 12.2571 16.6571 12.2571 15.0857Z" fill="#37414F"/>
</svg>

<svg xmlns="http://www.w3.org/2000/svg" width="24" height="24" fill="none"><path fill="#37414F" fill-rule="evenodd" d="M14.5 9c.52 0 1.023.072 1.5.207V8h-6V2H8v6H2v2h6v6h1.207A5.504 5.504 0 0 1 9 14.5c0-1.177.37-2.268 1-3.163V10h1.337c.895-.63 1.986-1 3.163-1Zm3.475 3.197a4.086 4.086 0 1 0-.23 5.994l.17.17v.496L21.056 22l.943-.943-3.143-3.143h-.496l-.17-.17a4.086 4.086 0 0 0-.216-5.548Zm-5.718 2.889a2.817 2.817 0 0 1 2.829-2.829 2.817 2.817 0 0 1 2.828 2.829 2.817 2.817 0 0 1-2.828 2.828 2.817 2.817 0 0 1-2.829-2.828Z" clip-rule="evenodd"/></svg>
